X:621
T:Blowzabella. HSJJ.115
O:england
M:6/8
L:1/8
S:HSJ Jackson,Wyresdale,Lancs.1823
R:Jig
A:Lancashire
H:1823
K:G
|:z|d2c BAG|c2AB2G|d2c BAG|A2DG2:|
|:z|g2d BAB|cAc BAG|g2d BGB|ADFG2:|
|:G/A/|BAB cBc|d3d2c|BcB ABA|G3G2:|
|:z|g2Gg2G|ABAB2G|g2Gg2G|ABAG2:|
|:G/A/|BAB cBc|d3d2c|BcB ABA|G3G2:|]
